assets/img/icons/duotone-icons/Food/Cheese.svg

<?xml version="1.0" encoding="UTF-8"?>
<svg width="24px" height="24px" viewBox="0 0 24 24" version="1.1" xmlns="http://www.w3.org/2000/svg" xmlns:xlink="http://www.w3.org/1999/xlink">
    <!-- Generator: Sketch 52.2 (67145) - http://www.bohemiancoding.com/sketch -->
    <title>Stockholm-icons / Food / Cheese</title>
    <desc>Created with Sketch.</desc>
    <g id="Stockholm-icons-/-Food-/-Cheese" stroke="none" stroke-width="1" fill="none" fill-rule="evenodd">
        <rect id="bound" x="0" y="0" width="24" height="24"></rect>
        <path d="M22,13.9146471 L22,19 C22,20.1045695 21.1045695,21 20,21 L14,21 C14,19.8954305 13.1045695,19 12,19 C10.8954305,19 10,19.8954305 10,21 L4,21 C2.8954305,21 2,20.1045695 2,19 L2,7 L22,7 L22,11.0853529 C21.8436105,11.0300771 21.6753177,11 21.5,11 C20.6715729,11 20,11.6715729 20,12.5 C20,13.3284271 20.6715729,14 21.5,14 C21.6753177,14 21.8436105,13.9699229 22,13.9146471 Z M9,17 C11.209139,17 13,15.209139 13,13 C13,10.790861 11.209139,9 9,9 C6.790861,9 5,10.790861 5,13 C5,15.209139 6.790861,17 9,17 Z M18,18 C18.5522847,18 19,17.5522847 19,17 C19,16.4477153 18.5522847,16 18,16 C17.4477153,16 17,16.4477153 17,17 C17,17.5522847 17.4477153,18 18,18 Z M5,21 C5.55228475,21 6,20.5522847 6,20 C6,19.4477153 5.55228475,19 5,19 C4.44771525,19 4,19.4477153 4,20 C4,20.5522847 4.44771525,21 5,21 Z" id="Combined-Shape" fill="#335EEA"></path>
        <path d="M19.5954729,5.83476152 L4.60883918,4.07162814 C4.23525261,4.02767678 3.86860536,4.19709197 3.65994764,4.51007855 L2,7 C15.3333333,7 22,7 22,7 C22,7 22,7 22,7 L22,7 C21.352294,6.35229396 20.5051936,5.94178748 19.5954729,5.83476152 Z" id="Path-98" fill="#335EEA" opacity="0.3"></path>
    </g>
</svg>

<svg width="24" height="24" viewBox="0 0 24 24" xmlns="http://www.w3.org/2000/svg"><g fill="none" fill-rule="evenodd"><path d="M0 0h24v24H0z"/><path d="M22 13.915V19a2 2 0 01-2 2h-6a2 2 0 10-4 0H4a2 2 0 01-2-2V7h20v4.085a1.5 1.5 0 100 2.83zM9 17a4 4 0 100-8 4 4 0 000 8zm9 1a1 1 0 100-2 1 1 0 000 2zM5 21a1 1 0 100-2 1 1 0 000 2z" fill="#335EEA"/><path d="M19.595 5.835L4.61 4.072a1 1 0 00-.95.438L2 7h20a4.074 4.074 0 00-2.405-1.165z" fill="#335EEA" opacity=".3"/></g></svg>
